X:62
T:Rolling King
M:C|
L:1/8
Q:1/4=120
K:E
E2(GA) B2cB|A2(GF) E4  |B2G2(Be3)|c2G2 B4|
E2(GA) B2cB|A2(GF) E2EF|G3A B2G2|FF E6|
B2G2 B4|c2A2 B4|
e2d2 c2B2|c2c2 B2EF|G3A B2G2|FF E6||
